X: 2
T: Bulgar in D
N: From handwritten MS, labelled "I-15"
R: bulgar, freylach
M: 2/4
L: 1/8
K: E
 B,"B7"CD \
"B"\
||"E"E4 | zB "B7"A>G | "E"^^F G3 | zB,"B7"CD | "E"EG FE | GB "B7"AG | "E"^^F G3 | zB,"B7"CD |
| "E"E>D EF | "E7"GE FG | "Am"A4 | =c4 | "E"^A B2 G | "B7"(3AGF BB, | "E"E4 | z :: E"E7"A=c "C"||"Am"e4 | ze d>=c | B =c3- |
| =c3 c | B=c de | "(B7)"d=c BA | "E"B4 | z :| G/B/ "B7"(3AGF "D"||"E"E4 | zB "B7"A>G | "E"^^F G3 | zB,"B7"CD | "E"EG FE |
| GB "B7"AG | "E"^^F G3 | zB,"B7"CD | "E"E>D EF | "E7"GE FG | "Am"A4 | =c4 | "E"^A B2 G | "B7"(3AGF BB, |
| "E"E4 | z |: E (3=dcB "E"||"E"^A/c/B- B2- | B4- | B4- | B4 | ^d/f/e- e2 | e4 | kez {d}kez | {d}kez {d}kez |
| "E"^A/B/c/=d/ c{dc}B | "E"^A/B/c/=d/ c{dc}B | "E"^A/B/c/=d/ c{dc}B | "E"^A/B/c/=d/ c{dc}B | "E"^A/c/B2 B | "B7"AG FE |
| "E"^A B3 | zEFG | "Am"A2- A2 | A2 A2 | "B7"G>A ^AB | "E"GF/G/ FE | ^A B2 G | "B7"A/G/F BB, | "E"E4 | Z :|
